X:179
T: VIVAT ES LEB EIN INFANTRIE
N: E1323
O: Europa, Mitteleuropa, Deutschland, Hessen, Odenwald
R: Staende -, Soldaten -, Kriegs - Lied
M: 6/8
L: 1/16
K: G
D2 | G4G2G2A2B2 | B2A2A2A2B2
c2 | d2e2d2c2B2A2 | B8z2
Bc | d4B2d2e2d2 | c8z2
B2 | B2A2A2d2d2c2 | B4A2B2z2
BA | G4G2G2A2B2 | B2A2A2A2B2
c2 | d2e2d2c2B2A2 | B8z2

